X: 30005
T: Off In The Morning
R: reel
M: 4/4
K: Gmajor
|:~G3B dB (3BBB|gBfB eBdB|cBAc BAGB|Add^c d=cBA|
~G3B dB (3BBB|gBfB eBdB|cBAc BAGB|1 ADFA G2 (3DEF:|2 ADFA GABd||
~g3 g gdBd|gBfB eBdB|cBAc BAGB|Add^c defa|
~g3g gdBd|gBfB eBdB|cBAc BAGB|ADFA GABd|
~g3g gdBd|gBfB eBdB|cBAc BAGB|ADFA G2 (3DEF|
~G3B dB (3BBB|gBfB eBdB|cBAc BAGE|ADFA G4||

